raw-svg/android.svg

<svg viewBox="0 0 24 24" xmlns="http://www.w3.org/2000/svg"><path d="m18.06 9.33a.94.94 0 0 0 -.94.94v4.26a.94.94 0 0 0 1.88 0v-4.26a.94.94 0 0 0 -.94-.94z"/><path d="m5.94 9.33a.94.94 0 0 0 -.94.94v4.26a.94.94 0 0 0 1.88 0v-4.26a.94.94 0 0 0 -.94-.94z"/><path d="m7.56 9.33v6.4a1.07 1.07 0 0 0 1.07 1.07h.68v2.27a.94.94 0 0 0 1.88 0v-2.27h1.62v2.27a.94.94 0 0 0 1.88 0v-2.27h.68a1.07 1.07 0 0 0 1.07-1.07v-6.4z"/><circle cx="9.98" cy="7.07" fill="none" r=".4"/><circle cx="14.02" cy="7.07" fill="none" r=".4"/><path d="m16.32 8a4.13 4.13 0 0 0 -1.83-2.36l-.15-.09-.16-.08.18-.31.53-1a.14.14 0 0 0 -.05-.16h-.07a.17.17 0 0 0 -.13.07l-.54.93-.17.31-.16-.07-.17-.06a4.88 4.88 0 0 0 -3.2 0l-.16.06-.17.07-.17-.31-.54-1a.14.14 0 0 0 -.25.14l.53 1 .18.31-.16.08-.15.09a4.07 4.07 0 0 0 -1.82 2.38 3.11 3.11 0 0 0 -.13.8h8.88a3.6 3.6 0 0 0 -.12-.8zm-6.32-.53a.4.4 0 1 1 .4-.4.4.4 0 0 1 -.4.4zm4 0a.4.4 0 1 1 .4-.4.4.4 0 0 1 -.4.4z"/></svg>

<svg xmlns="http://www.w3.org/2000/svg" viewBox="0 0 24 24"><defs><style>.cls-1{fill:none;}</style></defs><g id="android"><path d="M18.06,9.33a.94.94,0,0,0-.94.94v4.26a.94.94,0,0,0,1.88,0V10.27A.94.94,0,0,0,18.06,9.33Z"/><path d="M5.94,9.33a.94.94,0,0,0-.94.94v4.26a.94.94,0,0,0,1.88,0V10.27A.94.94,0,0,0,5.94,9.33Z"/><path d="M7.56,9.33v6.4A1.07,1.07,0,0,0,8.63,16.8h.68v2.27a.94.94,0,0,0,1.88,0h0V16.8h1.62v2.27a.94.94,0,0,0,1.88,0h0V16.8h.68a1.07,1.07,0,0,0,1.07-1.07V9.33Z"/><circle class="cls-1" cx="9.98" cy="7.07" r="0.4"/><circle class="cls-1" cx="14.02" cy="7.07" r="0.4"/><path d="M16.32,8a4.13,4.13,0,0,0-1.83-2.36l-.15-.09-.16-.08.18-.31.53-1A.14.14,0,0,0,14.84,4h0l-.07,0a.17.17,0,0,0-.13.07L14.1,5l-.17.31-.16-.07-.17-.06a4.88,4.88,0,0,0-3.2,0l-.16.06-.17.07L9.9,5l-.54-1a.14.14,0,0,0-.25.14l.53,1,.18.31-.16.08-.15.09A4.07,4.07,0,0,0,7.69,8a3.11,3.11,0,0,0-.13.8h8.88A3.6,3.6,0,0,0,16.32,8ZM10,7.47a.4.4,0,1,1,.4-.4A.4.4,0,0,1,10,7.47Zm4,0a.4.4,0,1,1,.4-.4A.4.4,0,0,1,14,7.47Z"/></g></svg>
